X: 105
T:Banister Hornpipe. WI.105
M:C
Q:180
S:Wm Irwin, Folio MS, c1850. AGG's Transcription
R:Hornipe
O:England
A:Lake District
Z:vmp.Chris Partington.2005
K:Bb
dc|BABF DEFD|EFGF C2ed|cBcd egfB|A2f2 f2dc|!
BABF DEFD|EFGF C2ed|cBcd egfA|B2b2 b2:|!
|:dc|Bgg2 Bgeg|egg2 egec|Aff2 Afcf|dff2 dfdF|!
GBB2 edcB|Acf2 fedc|Bdfd egfA|B2b2 b2:|]
